X:1057
%%annotationfont Times 16
T:Irish Whispers
C:Joe Buchanan's Scottish Tome - Page 637.0
I:637 0
Z:Carl Allison
R:Waltz
L:1/4
M:3/4
K:F
W:Intro
%%vskip 0
"Bm"(f e f) | "Bb"(g f d) | "F"c3 | "Dm"A2 A | "G7"D3 | "C7"E3 | "F"F3- | F3 :|
P:1
|: "C7"C | "F"(F2 G) | "Am"(E2 C) | "G7"D3 | "C7"E | "F"(F2 G) | "F7"(A2 c) | "Bb"d3- | "Bb"d2 "C7"e |
"F"(f2 g) | "Bb"(f2 d) | "Am"c3 | "Bm"A3 | "G7"(G2 F) | "G7"(D2 A) | "C7"G3- | "C7"G2 C |
"F"(F2 G) | "Am"(E2 C) | "G7"D3 | "C7"E3 | "F"F2 G | "F7"(A2 c) | "Bb"d3- | "Bb"d2 "A7"e |
"Bm"(f e f) | "Bb"(g f d) | "F"c3 | "Dm"A2 A | "G7"D3 | "C7"E3 | "F"F3- | F3 :|
P:2
[K:C]G, | "C"(C2 "G7"D) | "C"(E2 "G7"E) | "C"G3 | "Am"c3 | "D"A3 | "G7"B3 | "C"G3 | "C"(A2 c) |
"G7"(F2 G) | "G7"(A2 F) | "C"E3 | "A7"(G2 E) | "D7"(D2 C) | "D7"(A,2 E) | "G7"D3- | "G7"D2 G, |
"C"(C2 "G7"D) | "C"(E2 "G7"F) | "C"G3 | "Am"c3 | "D"A3 | "G7"B3 | "C"G3 | "C"(G A B) |
"C"c>z A | "C"G>z E | "D7"D3 | "D7"A, | "D7"C3 | "G7"D3 | "C"C3- | C2 :|
P:3
e | "Am"(f e d) | "Am"(e2 c) | "E7"(d c B) | "Am"(A2 B) | "Am"(c B A) | "E7"(c d) ^d | "E7"e3- | "E7"e2 g |
"Am"a a g | "Am"e2 d/e/ | "E7"(f e d) | "Am"e2 e/d/ | "Am"(c A) A | "E7"(G E G) | "Am"A3- | A2 :|
W:Errata: Re-arranged intro vs original scan.

